X: 22248
T: La Grande Chaine
R: barndance
M: 4/4
K: Gmajor
B3B cBce|d2dc BGBd|cBcA FDFA|Addc BAGA|
B3B cBce|d2dc BGBd|cBcA FDFA|1 GBdB GDGA:|2 GBdB G2 (3GBd||
|:gagf eege|dz dc BG Bd|cBcA FDFA|Addc BA (3GBd|
gagf ecge|dz dc BG Bd|cBcA FDFA|1 GBdB G GGG]:|2 GBdB GDGA||

